images/contract.svg

<?xml version="1.0" encoding="UTF-8" standalone="no"?>
<svg width="236px" height="290px" viewBox="0 0 236 290" version="1.1" xmlns="http://www.w3.org/2000/svg" xmlns:xlink="http://www.w3.org/1999/xlink" xmlns:sketch="http://www.bohemiancoding.com/sketch/ns">
    <title>contract</title>
    <description>Created with Sketch (http://www.bohemiancoding.com/sketch)</description>
    <defs></defs>
    <g id="Page-1" stroke="none" stroke-width="1" fill="none" fill-rule="evenodd" sketch:type="MSPage">
        <g id="website" sketch:type="MSArtboardGroup" transform="translate(-211.000000, -2142.000000)">
            <g id="Path-copy-+-Fill-1" sketch:type="MSLayerGroup" transform="translate(211.000000, 2142.000000)">
                <path d="M226.042194,0.996563574 C231.421224,0.996563574 236,5.82039861 236,11.9587629 L236,279.037801 C236,285.176165 231.421224,290 226.042194,290 L10.9535865,290 C5.57469727,290 0.995780591,285.176307 0.995780591,279.037801 L3.98312236,279.037801 C3.94578192,283.573456 7.23705679,287.040816 10.9535865,287.010309 L226.042194,287.010309 C229.758724,287.040816 233.049999,283.573456 233.012658,279.037801 L233.012658,11.9587629 C233.049999,7.42310719 229.758724,3.95574797 226.042194,3.9862543 L226.042194,0.996563574 Z" id="Path-copy" fill-opacity="0.7" fill="#933098" sketch:type="MSShapeGroup"></path>
                <path d="M234.008439,7.97250859 C234.008439,3.51543743 230.646711,0 226.042194,0 L7.96624473,0 C3.36172815,0 0,3.51543743 0,7.97250859 L0,279.037801 C0,283.494872 3.36172815,287.010309 7.96624473,287.010309 L226.042194,287.010309 C230.646711,287.010309 234.008439,283.494872 234.008439,279.037801 L234.008439,7.97250859 L234.008439,7.97250859 Z M180.236287,15.9450172 C196.382914,15.9450172 209.113924,28.6861839 209.113924,43.8487973 C209.113924,60.0079742 196.382914,72.7491409 180.236287,72.7491409 C165.086092,72.7491409 152.35443,60.0079742 152.35443,43.8487973 C152.35443,28.6861839 165.086092,15.9450172 180.236287,15.9450172 L180.236287,15.9450172 Z M25.8902954,35.8762887 C25.633527,35.8762887 25.8741254,35.8762887 25.8902954,35.8762887 L116.506329,35.8762887 C129.617669,35.8762887 129.617669,55.8075601 116.506329,55.8075601 L116.506329,55.8075601 L25.8902954,55.8075601 C12.7787924,55.8075601 12.7787924,35.8762887 25.8902954,35.8762887 L25.8902954,35.8762887 Z M95.5949367,270.068729 L24.8945148,270.068729 C22.110207,270.068729 22.110207,265.085911 24.8945148,265.085911 L95.5949367,265.085911 C98.3790806,265.085911 98.3790806,270.068729 95.5949367,270.068729 L95.5949367,270.068729 Z M60.742616,246.151203 C63.762236,244.254216 66.3661448,241.967168 68.7088608,239.175258 C70.0201631,238.327767 71.7617132,239.600875 71.6962025,241.168385 C71.2411904,242.60697 71.2787406,244.114564 71.6962025,245.154639 C78.1355278,245.154486 84.1306038,236.875384 86.6329114,231.202749 C87.5211236,229.312731 90.3101935,230.965823 89.6202532,233.195876 C86.2722574,239.972415 78.2805491,249.936437 69.7046414,249.140893 C68.3737831,248.67502 67.7801023,247.898164 67.7130802,247.147766 C68.0416585,246.082686 68.0817983,245.400014 67.7130802,245.154639 C65.7595156,246.8472 63.0895703,248.842603 59.7468354,249.140893 C57.247932,250.304729 53.7085065,248.911454 53.7721519,245.154639 C54.7022907,240.590133 57.0064457,236.299238 59.7468354,232.199313 C51.388166,239.789893 43.7486523,248.011185 36.8438819,256.116838 C35.2040505,258.173967 32.9257921,255.864834 33.8565401,254.123711 C43.7771386,242.958374 54.0619958,232.227889 65.721519,222.233677 C66.7358196,221.478568 68.7499321,222.943942 67.7130802,224.226804 C64.8978044,230.421505 60.8119594,235.648394 58.7510549,242.164948 C57.9665642,242.954477 57.3210901,244.368536 57.7552743,246.151203 C57.4052542,247.374631 59.8848591,246.329513 60.742616,246.151203 L60.742616,246.151203 Z M24.8945148,174.398625 C18.3397262,174.398625 18.3397262,164.43299 24.8945148,164.43299 L47.7974684,164.43299 L145.383966,164.43299 C151.938592,164.43299 151.938592,174.398625 145.383966,174.398625 L122.481013,174.398625 L24.8945148,174.398625 L24.8945148,174.398625 Z M143.392405,250.137457 C144.722788,250.808901 143.070131,253.639378 141.400844,252.130584 C133.083794,247.646545 139.810871,233.537366 144.388186,228.213058 C147.141247,225.623946 150.944595,223.184919 155.341772,224.226804 C160.261843,226.607805 161.821077,233.510528 162.312236,238.178694 C163.220441,241.36307 163.486235,244.616416 164.303797,247.147766 C164.605331,247.552937 164.611252,247.562756 164.303797,247.147766 C165.096128,246.841391 165.528371,246.071585 166.295359,245.154639 C166.669178,244.56143 167.27774,243.781151 168.28692,243.161512 C170.804768,240.929073 173.348228,242.852933 175.257384,245.154639 C176.289063,247.576503 179.824644,254.259935 183.223629,249.140893 C184.211553,247.179162 185.094461,245.265776 188.202532,245.154639 C190.853103,244.994119 192.395889,248.27954 195.172996,248.14433 C197.699918,247.765027 197.680181,251.039974 195.172996,251.134021 C192.674841,251.52503 191.206397,250.256422 189.198312,249.140893 C186.853041,247.76699 184.90038,252.643736 183.223629,253.127148 C180.034515,254.710298 177.142366,254.23637 175.257384,252.130584 C174.446272,250.82723 171.37583,245.106709 170.278481,245.154639 C168.331704,246.229343 166.105354,254.273027 162.312236,251.134021 C159.05393,247.256405 159.950654,222.222007 150.362869,228.213058 C146.070835,230.507238 143.449743,234.940822 142.396624,239.175258 C141.108259,242.01243 139.49705,247.672728 143.392405,250.137457 L143.392405,250.137457 Z M204.135021,270.068729 L133.434599,270.068729 C130.650291,270.068729 130.650291,265.085911 133.434599,265.085911 L204.135021,265.085911 C206.919165,265.085911 206.919165,270.068729 204.135021,270.068729 L204.135021,270.068729 Z M203.139241,154.467354 C203.239609,154.467354 203.090964,154.467354 203.139241,154.467354 L110.531646,154.467354 L24.8945148,154.467354 C18.339036,154.467354 18.339036,144.501718 24.8945148,144.501718 C24.7939835,144.501718 24.9426279,144.501718 24.8945148,144.501718 L117.50211,144.501718 L203.139241,144.501718 C209.694556,144.501718 209.694556,154.467354 203.139241,154.467354 L203.139241,154.467354 Z M203.139241,132.542955 C203.239609,132.542955 203.090964,132.542955 203.139241,132.542955 L110.531646,132.542955 L24.8945148,132.542955 C18.339036,132.542955 18.339036,122.57732 24.8945148,122.57732 C24.7939835,122.57732 24.9426279,122.57732 24.8945148,122.57732 L117.50211,122.57732 L203.139241,122.57732 C209.694556,122.57732 209.694556,132.542955 203.139241,132.542955 Z M180.236287,63.7800687 C190.892178,63.7800687 199.156118,55.285957 199.156118,44.8453608 C199.156118,34.4047647 190.892178,25.9106529 180.236287,25.9106529 C170.576176,25.9106529 162.312236,34.4047647 162.312236,44.8453608 C162.312236,55.285957 170.576176,63.7800687 180.236287,63.7800687 Z" id="Fill-1" fill="#FFFFFF" sketch:type="MSShapeGroup"></path>
            </g>
        </g>
    </g>
</svg>

<?xml version="1.0" encoding="utf-8"?>
<!-- Generator: Adobe Illustrator 16.0.0, SVG Export Plug-In . SVG Version: 6.00 Build 0)  -->
<!DOCTYPE svg PUBLIC "-//W3C//DTD SVG 1.1//EN" "http://www.w3.org/Graphics/SVG/1.1/DTD/svg11.dtd">
<svg version="1.1" id="Layer_1" xmlns:sketch="http://www.bohemiancoding.com/sketch/ns"
	 xmlns="http://www.w3.org/2000/svg" xmlns:xlink="http://www.w3.org/1999/xlink" x="0px" y="0px" width="236px" height="290px"
	 viewBox="0 0 236 290" enable-background="new 0 0 236 290" xml:space="preserve">
<title>contract</title>
<description>Created with Sketch (http://www.bohemiancoding.com/sketch)</description>
<g id="Page-1" sketch:type="MSPage">
	<g id="website" transform="translate(-211.000000, -2142.000000)" sketch:type="MSArtboardGroup">
		<g id="Path-copy-_x2B_-Fill-1" transform="translate(211.000000, 2142.000000)" sketch:type="MSLayerGroup">
			<g sketch:type="MSShapeGroup">
				<path id="Path-copy" fill="#933098" fill-opacity="0.7" d="M226.042,0.997c5.38,0,9.958,4.824,9.958,10.962v267.078
					c0,6.139-4.578,10.963-9.958,10.963H10.954c-5.379,0-9.958-4.824-9.958-10.963h2.987c-0.037,4.536,3.254,8.004,6.971,7.973
					h215.088c3.717,0.031,7.008-3.437,6.971-7.973V11.959c0.037-4.536-3.254-8.003-6.971-7.973V0.997z"/>
				<path id="Fill-1" fill="#FFFFFF" d="M233.008,7.973c0-4.457-3.361-7.973-7.966-7.973H7.966C3.362,0,0,3.516,0,7.973v271.064
					c0,4.458,3.362,7.973,7.966,7.973h217.076c4.604,0,7.966-3.515,7.966-7.973V7.973L233.008,7.973z M180.236,15.945
					c16.146,0,28.877,12.741,28.877,27.904c0,16.159-12.73,28.9-28.877,28.9c-15.15,0-27.882-12.741-27.882-28.9
					C152.354,28.686,165.086,15.945,180.236,15.945L180.236,15.945z M25.89,35.876C25.633,35.876,25.874,35.876,25.89,35.876h90.616
					c13.111,0,13.111,19.931,0,19.931l0,0H25.89C12.779,55.808,12.779,35.876,25.89,35.876L25.89,35.876z M95.595,270.068h-70.7
					c-2.784,0-2.784-4.982,0-4.982h70.7C98.379,265.086,98.379,270.068,95.595,270.068L95.595,270.068z M60.743,246.151
					c3.02-1.897,5.624-4.185,7.966-6.976c1.311-0.848,3.053,0.426,2.987,1.992c-0.455,1.439-0.417,2.947,0,3.986
					c6.439,0,12.435-8.279,14.937-13.951c0.888-1.891,3.677-0.237,2.987,1.992c-3.348,6.777-11.339,16.741-19.916,15.945
					c-1.331-0.466-1.924-1.242-1.992-1.992c0.329-1.066,0.369-1.748,0-1.994c-1.953,1.693-4.624,3.688-7.966,3.986
					c-2.499,1.164-6.039-0.229-5.975-3.986c0.93-4.564,3.234-8.855,5.975-12.955c-8.359,7.591-15.999,15.812-22.903,23.918
					c-1.64,2.057-3.918-0.252-2.987-1.994c9.921-11.164,20.206-21.895,31.865-31.889c1.014-0.756,3.028,0.709,1.991,1.992
					c-2.815,6.195-6.901,11.422-8.962,17.938c-0.784,0.79-1.43,2.204-0.996,3.986C57.405,247.375,59.885,246.33,60.743,246.151
					L60.743,246.151z M24.895,174.398c-6.555,0-6.555-9.965,0-9.965h22.903h97.586c6.555,0,6.555,9.965,0,9.965H122.48H24.895
					L24.895,174.398z M143.393,250.138c1.33,0.671-0.322,3.501-1.992,1.993c-8.316-4.484-1.59-18.594,2.988-23.918
					c2.752-2.589,6.557-5.027,10.953-3.986c4.92,2.381,6.479,9.284,6.971,13.952c0.908,3.185,1.174,6.438,1.991,8.97
					c0.302,0.404,0.308,0.414,0,0c0.792-0.307,1.225-1.076,1.991-1.994c0.374-0.593,0.982-1.373,1.992-1.992
					c2.518-2.232,5.061-0.309,6.971,1.992c1.031,2.422,4.566,9.105,7.966,3.986c0.987-1.961,1.87-3.875,4.979-3.986
					c2.65-0.16,4.193,3.125,6.97,2.99c2.526-0.379,2.507,2.896,0,2.989c-2.498,0.392-3.966-0.878-5.975-1.993
					c-2.345-1.373-4.298,3.503-5.975,3.986c-3.188,1.584-6.081,1.109-7.966-0.996c-0.812-1.304-3.882-7.023-4.979-6.977
					c-1.946,1.075-4.173,9.119-7.966,5.979c-3.259-3.878-2.361-28.911-11.949-22.921c-4.293,2.295-6.914,6.729-7.967,10.963
					C141.108,242.012,139.497,247.673,143.393,250.138L143.393,250.138z M204.135,270.068h-70.7c-2.784,0-2.784-4.982,0-4.982h70.7
					C206.919,265.086,206.919,270.068,204.135,270.068L204.135,270.068z M203.139,154.467
					C203.24,154.467,203.091,154.467,203.139,154.467h-92.607H24.895c-6.556,0-6.556-9.965,0-9.965c-0.101,0,0.048,0,0,0h92.607
					h85.637C209.694,144.502,209.694,154.467,203.139,154.467L203.139,154.467z M203.139,132.543
					C203.24,132.543,203.091,132.543,203.139,132.543h-92.607H24.895c-6.556,0-6.556-9.966,0-9.966c-0.101,0,0.048,0,0,0h92.607
					h85.637C209.694,122.577,209.694,132.543,203.139,132.543z M180.236,63.78c10.656,0,18.92-8.494,18.92-18.935
					c0-10.44-8.264-18.935-18.92-18.935c-9.66,0-17.924,8.494-17.924,18.935C162.312,55.286,170.576,63.78,180.236,63.78z"/>
			</g>
		</g>
	</g>
</g>
</svg>
